X:197
T: JETZUND FAELLT DIE NACHT HEREIN
N: B0233
O: Europa, Mitteleuropa, Deutschland
R: Tageszeiten - Lied, Nacht
M: 4/4
L: 1/8
K: C
 | E2E2E2E2 | D3CC4 |
B,2C2D2E2 | D3CC4 |
E2E2E2E2 | D3CC4 |
B,2C2D2E2 | D3CC4 |
A,2A,2A,2A,2 | A,2B,2C4 |
B,2C2D2E2 | D3CC4

@@@ Tune index: 2000
